dist/media/images/logo-footer.svg

<svg xmlns="http://www.w3.org/2000/svg" xmlns:xlink="http://www.w3.org/1999/xlink" width="22" height="22" viewBox="0 0 22 22" fill="none">
<mask id="mask0_78_1188" style="mask-type:alpha" maskUnits="userSpaceOnUse" x="0" y="0" width="22" height="22">
<rect width="22" height="22" fill="url(#pattern0)"/>
</mask>
<g mask="url(#mask0_78_1188)">
<rect x="-3.14258" y="-2.61841" width="27.7619" height="28.8095" fill="white"/>
</g>
<path d="M1.34521 8.15649V9.17543C1.6531 9.17543 1.56464 9.17177 1.87252 9.17177C2.05212 9.17177 2.1071 9.22308 2.0961 9.39901C2.08144 9.62259 2.09244 9.84984 2.09244 10.0771C2.09244 10.4546 2.09244 10.8321 2.09244 11.239C2.40032 11.239 2.67521 11.2463 2.94644 11.2353C3.10771 11.228 3.15902 11.2829 3.15169 11.4442C3.14069 11.7044 3.14802 11.9647 3.14802 12.2469C3.47057 12.2469 3.76745 12.2579 4.06433 12.2432C4.24393 12.2359 4.31724 12.2799 4.30257 12.4741C4.28425 12.7417 4.29891 13.0093 4.29891 13.2878H8.13642C8.13642 12.9909 8.14375 12.7051 8.13275 12.4192C8.12909 12.2799 8.17673 12.2396 8.31235 12.2432C8.56525 12.2542 8.82182 12.2469 9.09304 12.2469C9.09304 11.961 9.10404 11.7008 9.08938 11.4405C9.07838 11.2719 9.14436 11.2316 9.2983 11.239C9.54753 11.25 9.80044 11.2353 10.0497 11.2463C10.2109 11.2536 10.2733 11.2096 10.2696 11.0337C10.2586 10.4729 10.2696 9.90848 10.2623 9.3477C10.2623 9.22308 10.2989 9.17543 10.4272 9.1791C10.7094 9.18643 10.988 9.18643 11.2702 9.1791C11.4095 9.17543 11.4461 9.22674 11.4461 9.35869C11.4388 9.89015 11.4425 10.4216 11.4425 10.9531C11.4425 11.041 11.4425 11.1327 11.4425 11.239C11.743 11.239 12.0142 11.2463 12.2891 11.2353C12.4577 11.228 12.5127 11.2866 12.5054 11.4552C12.4944 11.7154 12.5017 11.9757 12.5017 12.2579H13.6563V13.2842H17.4828C17.4828 12.9836 17.4901 12.7051 17.4791 12.4228C17.4755 12.2836 17.5231 12.2432 17.6587 12.2469C17.9116 12.2542 18.1682 12.2506 18.4467 12.2506C18.4467 11.961 18.4541 11.6935 18.4431 11.4259C18.4357 11.2793 18.4907 11.2353 18.6337 11.239C18.9012 11.2463 19.1725 11.2353 19.44 11.2426C19.5866 11.2463 19.6269 11.195 19.6233 11.052C19.6159 10.5022 19.6196 9.95246 19.6196 9.40268C19.6196 9.33304 19.6123 9.25973 19.6196 9.17543H20.6459V8.15649H1.34521ZM5.99592 11.5139C5.99592 11.6128 5.97026 11.6605 5.86397 11.6568C5.5341 11.6531 5.20422 11.6495 4.87435 11.6568C4.74607 11.6605 4.72041 11.6018 4.72408 11.4919C4.72774 11.173 4.72041 10.8578 4.72774 10.5389C4.73141 10.4106 4.69109 10.3666 4.56281 10.3703C4.25859 10.3776 3.95071 10.3666 3.6465 10.374C3.52188 10.3776 3.47423 10.3336 3.4779 10.2054C3.48523 9.88282 3.48523 9.55662 3.4779 9.23407C3.47423 9.10213 3.51088 9.04715 3.65383 9.05081C3.96537 9.05814 4.27692 9.06181 4.58846 9.05448C4.72041 9.05081 4.75707 9.10213 4.7534 9.22674C4.74607 9.59327 4.74973 9.95613 4.74973 10.3446C5.13458 10.3446 5.47912 10.3483 5.82732 10.341C5.95193 10.3373 5.99958 10.3776 5.99958 10.5059C5.98859 10.8395 5.99225 11.1767 5.99592 11.5139ZM15.3899 11.4809H14.1474V10.2054C13.7332 10.2054 13.3227 10.2054 12.8976 10.2054V8.9042H14.1584V10.1944H15.3899V11.4809Z" fill="#CBC9C9"/>
<path d="M4.74596 10.3411C5.13081 10.3411 5.47534 10.3448 5.82354 10.3375C5.94816 10.3338 5.9958 10.3741 5.9958 10.5024C5.98847 10.8396 5.99214 11.1731 5.9958 11.5103C5.9958 11.6093 5.97015 11.6569 5.86385 11.6533C5.53398 11.6496 5.20411 11.6459 4.87424 11.6533C4.74596 11.6569 4.7203 11.5983 4.72396 11.4883C4.72763 11.1695 4.7203 10.8543 4.72763 10.5354C4.7313 10.4071 4.69098 10.3631 4.56269 10.3668C4.25848 10.3741 3.9506 10.3631 3.64638 10.3704C3.52177 10.3741 3.47412 10.3301 3.47778 10.2018C3.48511 9.8793 3.48511 9.55309 3.47778 9.23055C3.47412 9.0986 3.51077 9.04363 3.65371 9.04729C3.96526 9.05462 4.27681 9.05829 4.58835 9.05096C4.7203 9.04729 4.75695 9.0986 4.75329 9.22322C4.74229 9.58975 4.74596 9.95627 4.74596 10.3411Z" fill="white"/>
<path d="M14.1473 10.2055C13.7331 10.2055 13.3226 10.2055 12.8975 10.2055C12.8975 9.76563 12.8975 9.34412 12.8975 8.90796C13.319 8.90796 13.7295 8.90796 14.1583 8.90796C14.1583 9.34779 14.1583 9.77296 14.1583 10.1981L14.1473 10.2055Z" fill="white"/>
<path d="M14.1589 10.1946C14.5658 10.1946 14.9726 10.1946 15.3905 10.1946C15.3905 10.6271 15.3905 11.0486 15.3905 11.4811C14.9726 11.4811 14.5695 11.4811 14.1479 11.4811C14.1479 11.0522 14.1479 10.6271 14.1479 10.2056C14.1479 10.2056 14.1589 10.1946 14.1589 10.1946Z" fill="white"/>
<defs>
<pattern id="pattern0" patternContentUnits="objectBoundingBox" width="1" height="1">
<use xlink:href="#image0_78_1188" transform="scale(0.0416667)"/>
</pattern>
<image id="image0_78_1188" width="24" height="24" xlink:href="data:image/png;base64,iVBORw0KGgoAAAANSUhEUgAAABgAAAAYCAYAAADgdz34AAAABmJLR0QA/wD/AP+gvaeTAAAAeUlEQVRIie2VSwrAMAhETen9r2xXQil2JqaMpdC3C2J0/CRmYsbl7MDGSH23akZVdmCLjJgSR8ZXFQQwQ4ZcgTxANPBRGdD93y8RCzAM7wGz/03mzGxygF7eW9p6ELCsZnvW9x+0j+m5ZNXRzXz1Y5rhtrZ4qZ9cwQFEPBEs2iilzgAAAABJRU5ErkJggg=="/>
</defs>
</svg>

<svg xmlns="http://www.w3.org/2000/svg" xmlns:xlink="http://www.w3.org/1999/xlink" width="22" height="22" fill="none"><mask id="a" style="mask-type:alpha" maskUnits="userSpaceOnUse" x="0" y="0" width="22" height="22"><path fill="url(#pattern0)" d="M0 0h22v22H0z"/></mask><g mask="url(#a)"><path fill="#fff" d="M-3.143-2.618h27.762v28.809H-3.143z"/></g><path d="M1.345 8.156v1.02c.308 0 .22-.004.528-.004.18 0 .234.051.223.227-.015.224-.004.45-.004.678v1.162c.308 0 .583.007.854-.004.162-.007.213.048.206.21-.011.26-.004.52-.004.802.323 0 .62.01.916-.004.18-.007.253.037.239.231-.019.268-.004.535-.004.814h3.837c0-.297.008-.583-.003-.869-.004-.14.044-.18.18-.176.252.011.509.004.78.004 0-.286.011-.546-.004-.806-.01-.17.055-.21.21-.202.249.011.501-.004.75.007.162.008.224-.036.22-.212-.01-.561 0-1.126-.007-1.686 0-.125.037-.173.165-.169.282.007.561.007.843 0 .14-.004.176.048.176.18-.007.531-.003 1.063-.003 1.594v.286c.3 0 .571.007.846-.004.169-.007.224.052.216.22-.01.26-.003.52-.003.803h1.154v1.026h3.827c0-.3.007-.579-.004-.861-.003-.14.044-.18.18-.176.253.007.51.004.788.004 0-.29.007-.557-.004-.825-.007-.147.048-.19.19-.187.268.007.54-.004.807.004.147.003.187-.048.183-.191-.007-.55-.003-1.1-.003-1.65 0-.069-.008-.142 0-.227h1.026V8.156h-19.3zm4.65 3.358c0 .099-.025.147-.131.143a29.68 29.68 0 00-.99 0c-.128.004-.154-.055-.15-.165.004-.319-.004-.634.004-.953.003-.128-.037-.172-.165-.169-.304.008-.612-.003-.916.004-.125.004-.173-.04-.17-.169.008-.322.008-.648 0-.97-.003-.133.034-.188.177-.184.311.007.623.01.934.003.132-.003.17.048.165.173-.007.366-.003.73-.003 1.118.385 0 .73.003 1.077-.004.125-.004.173.037.173.165-.011.333-.008.67-.004 1.008zm9.395-.033h-1.243v-1.276h-1.25v-1.3h1.261v1.29h1.232v1.286z" fill="#CBC9C9"/><path d="M4.746 10.341c.385 0 .73.004 1.078-.003.124-.004.172.036.172.164-.008.338-.004.671 0 1.008 0 .1-.026.147-.132.143-.33-.003-.66-.007-.99 0-.128.004-.154-.055-.15-.165.004-.319-.004-.634.004-.953.003-.128-.037-.172-.165-.168-.305.007-.612-.004-.917.003-.124.004-.172-.04-.168-.168.007-.323.007-.649 0-.971-.004-.132.033-.187.176-.184.311.008.623.011.934.004.132-.004.169.048.165.172-.01.367-.007.733-.007 1.118zm9.401-.135h-1.25V8.908h1.261v1.29l-.01.008z" fill="#fff"/><path d="M14.159 10.195h1.231v1.286h-1.242v-1.275l.01-.011z" fill="#fff"/><defs><pattern id="pattern0" patternContentUnits="objectBoundingBox" width="1" height="1"><use xlink:href="#image0_78_1188" transform="scale(.04167)"/></pattern><image id="image0_78_1188" width="24" height="24" xlink:href="data:image/png;base64,iVBORw0KGgoAAAANSUhEUgAAABgAAAAYCAYAAADgdz34AAAABmJLR0QA/wD/AP+gvaeTAAAAeUlEQVRIie2VSwrAMAhETen9r2xXQil2JqaMpdC3C2J0/CRmYsbl7MDGSH23akZVdmCLjJgSR8ZXFQQwQ4ZcgTxANPBRGdD93y8RCzAM7wGz/03mzGxygF7eW9p6ELCsZnvW9x+0j+m5ZNXRzXz1Y5rhtrZ4qZ9cwQFEPBEs2iilzgAAAABJRU5ErkJggg=="/></defs></svg>
